X: 4
T: The Bag Of Spuds
R: reel
M: 4/4
L: 1/8
K: Amix
A2eA c/B/AeA|ABcd efdB|GAAG d2dB|GBBB GBdB|A2eA c/B/AeA|ABcd efdB|A/A/AGA g2ge|dBGA BAA2:||a2ea ageg|agbg agef|gedc BGB/c/d|g2ga bge2|a2ea ageg|agbg agef|d2ef g2ge|dBGA BAA2:||


Tune 579	Setting 13568

